X:486
T:Polska # 486
T: efter Melker Andersson
M:3/4
L:1/16
K: A
Q: 110
|agfe agfe agfe| f2a2 edcB c2B2| d2dB c2cA B2Bd| cBAG A4A,4 :|
|: {c}B2A,2 A,2B2 (cB)cB| {d}c2A,2 A,2A2 (cA)ce|{c}B2A,2 A,2B2 (cB)cB| {d}c2A,2 A,2A2 (cA)ce|
agfe agfe agfe| f2a2 edcB c2B2| d2dB c2cA B2Bd| cBAG A4A,4 :|

